public/pieces/monochrome/bQ.svg

<svg enable-background="new 0 0 141.7 141.7" image-rendering="optimizeQuality" shape-rendering="geometricPrecision" text-rendering="geometricPrecision" viewBox="0 0 141.7 141.7" xmlns="http://www.w3.org/2000/svg"><g clip-rule="evenodd" fill-rule="evenodd"><path d="m121.9 44c-2.5 0-4.5-.8-6.3-2.6-1.7-1.7-2.6-3.8-2.6-6.3 0-2.4.8-4.5 2.6-6.3s3.9-2.7 6.3-2.7 4.5.8 6.3 2.7c1.7 1.7 2.6 3.9 2.6 6.3 0 2.5-.8 4.5-2.6 6.3s-4 2.7-6.3 2.6zm-11.4 76.3c-2.1 1.8-6.9 3.4-14.3 4.7-7.4 1.2-15.9 1.8-25.5 1.8-9.8 0-18.4-.6-25.9-1.9s-12.1-2.9-14.1-4.9l4-15.5-1.8-10.1-5.7-9.9-5.5-40.2 3.3-1.3 18 29.8.4-35.6 4.4-.7 13.5 35.8 7.3-38.5h4.5l7.3 38.4 13.3-35.6 4.4.7.4 35.6 17.8-29.9 3 1.4-5.3 40-5.8 9.9-1.8 10.3zm-66.9-83.4c-2.5 0-4.6-.8-6.3-2.6-1.7-1.7-2.6-3.8-2.6-6.3 0-2.4.8-4.5 2.6-6.2 1.7-1.7 3.9-2.6 6.3-2.6s4.5.8 6.2 2.6c1.7 1.7 2.6 3.8 2.6 6.2 0 2.5-.8 4.5-2.6 6.3-1.6 1.7-3.9 2.6-6.2 2.6zm-23.9 7.1c-2.5 0-4.5-.8-6.3-2.6s-2.6-3.8-2.6-6.3c0-2.4.8-4.5 2.6-6.3 1.7-1.7 3.8-2.7 6.3-2.7s4.5.8 6.3 2.7c1.7 1.7 2.6 3.9 2.6 6.3 0 2.5-.8 4.5-2.6 6.3-1.7 1.8-3.9 2.7-6.3 2.6zm51-10.3c-2.5 0-4.5-.8-6.3-2.6-1.7-1.7-2.6-3.9-2.6-6.3s.8-4.5 2.6-6.3c1.7-1.7 3.8-2.6 6.3-2.6 2.4 0 4.5.8 6.3 2.6 1.7 1.7 2.7 3.9 2.6 6.3 0 2.5-.8 4.5-2.6 6.3-1.8 1.7-3.9 2.6-6.3 2.6zm27.2 3.2c-2.5 0-4.5-.8-6.3-2.6-1.7-1.7-2.6-3.8-2.6-6.3 0-2.4.8-4.5 2.6-6.2 1.7-1.7 3.8-2.6 6.3-2.6s4.6.8 6.3 2.6c1.7 1.7 2.6 3.8 2.6 6.2 0 2.5-.8 4.5-2.6 6.3s-3.9 2.6-6.3 2.6z" fill="#889599"/><path d="m105.3 117.9c-7.9-3.3-19.3-4.9-34.3-4.9-15.4 0-26.9 1.7-34.8 5.1 7.5 2.9 19 4.4 34.6 4.4 7.5 0 14.2-.4 20.3-1.2 6.2-.8 10.9-1.9 14.2-3.4zm-34.6-88.7c2.9 0 4.3-1.5 4.3-4.3s-1.5-4.3-4.3-4.3-4.2 1.5-4.2 4.3 1.4 4.3 4.2 4.3zm32.9 65.2c-8.3-2.1-19.2-3.1-32.7-3.1-13.8 0-24.8 1.1-33 3.2l1 6.2c8.4-2 19.1-2.9 32.1-2.9 12.9 0 23.4 1 31.6 2.9zm1.7-4 4.2-7.5c-2 .8-4.1 1.2-6.3 1.2-5.8 0-10.4-2.3-13.8-7.1-2.6 2.1-5.5 3.2-8.6 3.2-4.1 0-7.5-1.7-9.9-4.9-2.8 3-6.1 4.5-9.9 4.5-3.1 0-6-1.1-8.6-3.2-3.6 4.6-8.3 6.9-14.1 6.9-2.2 0-4.4-.5-6.5-1.2l4.5 7.7c8.4-2.4 19.9-3.6 34.5-3.6 14.8.3 26.3 1.6 34.5 4zm-29-15.5-5.5-31.6-5.5 31.3c.1-.1.5-.3.9-.6 1-1.9 2.5-2.9 4.5-2.9 2.2 0 3.6 1 4.2 2.9.3.2.8.6 1.4.9zm17.9 1.3v-30l-10.7 29.4c.8-.3 1.5-.6 2.1-1.1.8-1.1 2-1.7 3.5-1.7 1.7 0 3.1.7 4.1 2.3.1.2.3.4.5.6s.4.3.5.5zm-36.4-.9-10.5-29.1v29.5c.1-.2.3-.4.6-.6.8-1.8 2.3-2.8 4.2-2.8 1.7 0 2.9.6 4 2.1 1.2.6 1.7.9 1.7.9zm-16.3 3.6-13.9-24 3.6 21.9c2.5 1.7 4.9 2.6 7.2 2.6.8 0 1.9-.2 3.1-.5zm58.4.4c1 .3 2.1.5 3.3.5 2.7 0 5.1-.8 7.4-2.5l3.6-22.4zm3.8 32.7-1.9-7.3c-8.5-1.8-18.8-2.8-31-2.8-12.1 0-22.4.9-31 2.8l-2 7.4c8-2.4 19-3.6 33-3.6 13.6-.1 24.7 1.1 32.9 3.5zm-60.1-79.6c2.9 0 4.2-1.4 4.2-4.2s-1.5-4.2-4.2-4.2c-2.9 0-4.3 1.4-4.3 4.2s1.4 4.2 4.3 4.2zm54.3 0c2.9 0 4.3-1.4 4.3-4.2s-1.5-4.2-4.3-4.2-4.2 1.4-4.2 4.2 1.4 4.2 4.2 4.2zm-78.2 7.1c2.9 0 4.3-1.5 4.3-4.3s-1.5-4.3-4.3-4.3-4.2 1.5-4.2 4.3c0 2.9 1.4 4.3 4.2 4.3zm102.2 0c2.9 0 4.3-1.5 4.3-4.3s-1.5-4.3-4.3-4.3c-2.9 0-4.3 1.5-4.3 4.3-.1 2.9 1.3 4.3 4.3 4.3z"/></g></svg>

<?xml version="1.0" encoding="utf-8"?>
<!-- Generator: Adobe Illustrator 27.3.1, SVG Export Plug-In . SVG Version: 6.00 Build 0)  -->
<svg version="1.1"
	 id="Layer_1" text-rendering="geometricPrecision" shape-rendering="geometricPrecision" image-rendering="optimizeQuality"
	 xmlns="http://www.w3.org/2000/svg" xmlns:xlink="http://www.w3.org/1999/xlink" x="0px" y="0px" viewBox="0 0 141.7 141.7"
	 style="enable-background:new 0 0 141.7 141.7;" xml:space="preserve">
<style type="text/css">
	.st0{fill-rule:evenodd;clip-rule:evenodd;fill:#889599;}
	.st1{fill-rule:evenodd;clip-rule:evenodd;}
</style>
<path class="st0" d="M121.9,44c-2.5,0-4.5-0.8-6.3-2.6c-1.7-1.7-2.6-3.8-2.6-6.3c0-2.4,0.8-4.5,2.6-6.3s3.9-2.7,6.3-2.7
	s4.5,0.8,6.3,2.7c1.7,1.7,2.6,3.9,2.6,6.3c0,2.5-0.8,4.5-2.6,6.3C126.4,43.2,124.2,44.1,121.9,44z M110.5,120.3
	c-2.1,1.8-6.9,3.4-14.3,4.7c-7.4,1.2-15.9,1.8-25.5,1.8c-9.8,0-18.4-0.6-25.9-1.9c-7.5-1.3-12.1-2.9-14.1-4.9l4-15.5l-1.8-10.1
	l-5.7-9.9l-5.5-40.2L25,43l18,29.8l0.4-35.6l4.4-0.7l13.5,35.8l7.3-38.5h4.5l7.3,38.4l13.3-35.6l4.4,0.7l0.4,35.6L116.3,43l3,1.4
	l-5.3,40l-5.8,9.9l-1.8,10.3L110.5,120.3z M43.6,36.9c-2.5,0-4.6-0.8-6.3-2.6c-1.7-1.7-2.6-3.8-2.6-6.3c0-2.4,0.8-4.5,2.6-6.2
	c1.7-1.7,3.9-2.6,6.3-2.6s4.5,0.8,6.2,2.6c1.7,1.7,2.6,3.8,2.6,6.2c0,2.5-0.8,4.5-2.6,6.3C48.2,36,45.9,36.9,43.6,36.9z M19.7,44
	c-2.5,0-4.5-0.8-6.3-2.6s-2.6-3.8-2.6-6.3c0-2.4,0.8-4.5,2.6-6.3c1.7-1.7,3.8-2.7,6.3-2.7s4.5,0.8,6.3,2.7c1.7,1.7,2.6,3.9,2.6,6.3
	c0,2.5-0.8,4.5-2.6,6.3C24.3,43.2,22.1,44.1,19.7,44z M70.7,33.7c-2.5,0-4.5-0.8-6.3-2.6c-1.7-1.7-2.6-3.9-2.6-6.3s0.8-4.5,2.6-6.3
	c1.7-1.7,3.8-2.6,6.3-2.6c2.4,0,4.5,0.8,6.3,2.6c1.7,1.7,2.7,3.9,2.6,6.3c0,2.5-0.8,4.5-2.6,6.3C75.2,32.8,73.1,33.7,70.7,33.7
	L70.7,33.7z M97.9,36.9c-2.5,0-4.5-0.8-6.3-2.6c-1.7-1.7-2.6-3.8-2.6-6.3c0-2.4,0.8-4.5,2.6-6.2c1.7-1.7,3.8-2.6,6.3-2.6
	s4.6,0.8,6.3,2.6c1.7,1.7,2.6,3.8,2.6,6.2c0,2.5-0.8,4.5-2.6,6.3C102.4,36.1,100.3,36.9,97.9,36.9z"/>
<path class="st1" d="M105.3,117.9C97.4,114.6,86,113,71,113c-15.4,0-26.9,1.7-34.8,5.1c7.5,2.9,19,4.4,34.6,4.4
	c7.5,0,14.2-0.4,20.3-1.2C97.3,120.5,102,119.4,105.3,117.9L105.3,117.9z M70.7,29.2c2.9,0,4.3-1.5,4.3-4.3s-1.5-4.3-4.3-4.3
	s-4.2,1.5-4.2,4.3S67.9,29.2,70.7,29.2z M103.6,94.4c-8.3-2.1-19.2-3.1-32.7-3.1c-13.8,0-24.8,1.1-33,3.2l1,6.2
	c8.4-2,19.1-2.9,32.1-2.9c12.9,0,23.4,1,31.6,2.9L103.6,94.4z M105.3,90.4l4.2-7.5c-2,0.8-4.1,1.2-6.3,1.2c-5.8,0-10.4-2.3-13.8-7.1
	c-2.6,2.1-5.5,3.2-8.6,3.2c-4.1,0-7.5-1.7-9.9-4.9c-2.8,3-6.1,4.5-9.9,4.5c-3.1,0-6-1.1-8.6-3.2c-3.6,4.6-8.3,6.9-14.1,6.9
	c-2.2,0-4.4-0.5-6.5-1.2l4.5,7.7c8.4-2.4,19.9-3.6,34.5-3.6C85.6,86.7,97.1,88,105.3,90.4L105.3,90.4z M76.3,74.9l-5.5-31.6
	l-5.5,31.3c0.1-0.1,0.5-0.3,0.9-0.6c1-1.9,2.5-2.9,4.5-2.9c2.2,0,3.6,1,4.2,2.9C75.2,74.2,75.7,74.6,76.3,74.9z M94.2,76.2v-30
	L83.5,75.6c0.8-0.3,1.5-0.6,2.1-1.1c0.8-1.1,2-1.7,3.5-1.7c1.7,0,3.1,0.7,4.1,2.3c0.1,0.2,0.3,0.4,0.5,0.6
	C93.9,75.9,94.1,76,94.2,76.2L94.2,76.2z M57.8,75.3L47.3,46.2v29.5c0.1-0.2,0.3-0.4,0.6-0.6c0.8-1.8,2.3-2.8,4.2-2.8
	c1.7,0,2.9,0.6,4,2.1C57.3,75,57.8,75.3,57.8,75.3L57.8,75.3z M41.5,78.9l-13.9-24l3.6,21.9c2.5,1.7,4.9,2.6,7.2,2.6
	C39.2,79.4,40.3,79.2,41.5,78.9L41.5,78.9z M99.9,79.3c1,0.3,2.1,0.5,3.3,0.5c2.7,0,5.1-0.8,7.4-2.5l3.6-22.4L99.9,79.3z M103.7,112
	l-1.9-7.3c-8.5-1.8-18.8-2.8-31-2.8c-12.1,0-22.4,0.9-31,2.8l-2,7.4c8-2.4,19-3.6,33-3.6C84.4,108.4,95.5,109.6,103.7,112L103.7,112
	z M43.6,32.4c2.9,0,4.2-1.4,4.2-4.2S46.3,24,43.6,24c-2.9,0-4.3,1.4-4.3,4.2S40.7,32.4,43.6,32.4z M97.9,32.4c2.9,0,4.3-1.4,4.3-4.2
	s-1.5-4.2-4.3-4.2s-4.2,1.4-4.2,4.2S95.1,32.4,97.9,32.4z M19.7,39.5c2.9,0,4.3-1.5,4.3-4.3s-1.5-4.3-4.3-4.3s-4.2,1.5-4.2,4.3
	C15.5,38.1,16.9,39.5,19.7,39.5z M121.9,39.5c2.9,0,4.3-1.5,4.3-4.3s-1.5-4.3-4.3-4.3c-2.9,0-4.3,1.5-4.3,4.3
	C117.5,38.1,118.9,39.5,121.9,39.5z"/>
</svg>
